X: 0010
T: S\"arna Brurmarsch. efter Spaks Erik.
O: C.G.
P: (G-str\"angen uppst\"amd till a.)
%R: march, gaanglaat
B: Paul B\"ackstr\"om's "L\aatar fr\aan Dalarna" collection" 1974
Z: 2022 John Chambers <jc:trillian.mit.edu>
M: 2/4
L: 1/16
K: D
%%text K.E.F. 25.
%%slurgraces 1
%%graceslurs 1
% - - - - - - - - - -
|:\
!f!"_>"[a4A4] (Tf2df) | "_>"[a4A4] (Tf2df) |\
"_>"[a4A4] bagf | "_>"[g4A4] ({a}Tg2fg) ||\
"_>"[e4A4] (c2Ac) |"_>"[e4A4] (c2Ac) |\
(e2g2) f2Te2 |[1 [d4F4] (d2e2) :|[2 [d4F4] (d2e2) ||
|:\
!mf!dz "_>"B4 B2- | B2d2 (c2B2) | (TB2A2) (A2B^G) |\
"_>"A6 A2 || (TA2"_cresc. . ."B2) (c2d2) |\
(e2f2) (g2e2) | "_>"[d4F4] (Tc2Ac) |[1 [d4F4] (d2e2) :|[2 [d8F8] |]
% - - - - - - - - - -
%%text Jmf. S.L. nr 496
%%text Jmf 1098, 1136
